<?xml version="1.0" encoding="UTF-8"?>
<map version="1.10" tiledversion="1.12.2" orientation="orthogonal" renderorder="left-down" width="18" height="11" tilewidth="16" tileheight="16" infinite="0" nextlayerid="11" nextobjectid="1">
 <properties>
  <property name="Warp" value="7 10 Backwoods 25 1 8 10 Backwoods 25 1 7 0 SmartFellas.AscensionCode.Content_BaseCamp 7 8 8 0 SmartFellas.AscensionCode.Content_BaseCamp 8 8"/>
 </properties>
 <tileset firstgid="1" source="spring_outdoorsTileSheet.tsx"/>
 <layer id="1" name="Back" width="18" height="11">
  <data encoding="csv">
336,336,336,236,232,177,177,228,228,228,228,228,208,232,232,177,177,228,
336,336,336,285,185,186,177,177,232,177,228,177,177,177,177,177,177,177,
336,336,336,336,336,236,208,177,228,228,177,232,228,228,561,177,232,177,
336,336,336,336,1259,261,154,208,228,207,177,228,228,228,228,228,177,228,
336,336,336,285,154,154,154,208,232,232,177,177,228,228,228,177,228,228,
336,336,336,1210,154,154,154,154,228,228,177,177,228,228,228,228,228,208,
336,336,336,1210,154,228,154,154,232,611,177,177,177,232,177,228,177,177,
336,336,336,285,186,228,177,177,177,177,177,232,177,228,228,177,232,228,
336,336,336,336,236,177,232,228,228,232,154,177,177,228,207,177,228,228,
336,336,336,336,236,177,228,228,228,228,228,228,208,561,232,177,177,228,
336,336,336,336,211,177,177,228,228,228,177,177,228,228,228,228,228,208
</data>
 </layer>
 <objectgroup id="2" name="Back"/>
 <layer id="3" name="Buildings" width="18" height="11">
  <data encoding="csv">
0,0,0,0,0,0,0,0,0,0,0,0,0,1793,1793,1793,1793,1793,
0,0,0,0,0,0,0,0,0,0,0,0,0,0,0,0,0,0,
0,0,0,0,0,0,0,0,0,0,0,0,0,0,0,0,0,0,
0,0,0,0,0,0,0,0,0,0,0,0,0,0,0,0,0,0,
0,0,0,0,0,0,0,0,0,0,0,0,0,0,0,0,0,0,
0,0,0,0,0,0,0,0,0,0,0,0,0,0,0,0,0,0,
0,0,0,0,0,0,0,0,0,0,0,0,0,0,0,0,0,0,
0,0,0,0,0,0,0,0,0,0,0,0,0,0,0,0,0,0,
0,0,0,0,0,0,0,0,0,0,0,0,0,0,0,0,0,0,
0,0,0,0,0,0,0,0,0,0,0,0,0,0,0,0,0,0,
0,0,0,0,0,0,0,0,0,0,0,0,0,0,0,0,0,0
</data>
 </layer>
 <objectgroup id="4" name="Buildings"/>
 <layer id="5" name="Paths" width="18" height="11">
  <data encoding="csv">
0,0,0,0,0,0,0,0,0,0,0,0,0,0,0,0,0,0,
0,0,0,0,0,0,0,0,0,0,0,0,0,0,0,0,0,0,
0,0,0,0,0,0,0,0,0,0,0,0,0,0,0,0,0,0,
0,0,0,0,0,0,0,0,0,0,0,0,0,0,0,0,0,0,
0,0,0,0,0,0,0,0,0,0,0,0,0,0,0,0,0,0,
0,0,0,0,0,0,0,0,0,0,0,0,0,0,0,0,0,0,
0,0,0,0,0,0,0,0,0,0,0,0,0,0,0,0,0,0,
0,0,0,0,0,0,0,0,0,0,0,0,0,0,0,0,0,0,
0,0,0,0,0,0,0,0,0,0,0,0,0,0,0,0,0,0,
0,0,0,0,0,0,0,0,0,0,0,0,0,0,0,0,0,0,
0,0,0,0,0,0,0,0,0,0,0,0,0,0,0,0,0,0
</data>
 </layer>
 <objectgroup id="6" name="Paths"/>
 <layer id="7" name="Front" width="18" height="11">
  <data encoding="csv">
0,0,0,0,0,0,0,1793,1793,1793,1793,487,487,487,1796,1796,1796,1796,
0,0,0,0,0,0,0,544,544,1711,0,363,364,0,0,544,0,1821,
0,0,0,0,0,0,0,0,0,0,0,388,389,0,0,0,0,0,
0,0,0,0,0,0,0,0,0,0,0,0,0,0,0,0,0,0,
0,0,0,0,0,0,0,0,0,0,0,0,0,0,0,0,0,0,
0,0,0,0,0,0,0,0,0,0,0,0,0,0,0,0,0,0,
0,0,0,0,0,0,0,0,0,0,0,0,0,0,0,0,0,0,
0,0,0,0,0,0,0,0,0,0,0,0,0,0,0,0,0,0,
0,0,0,0,0,0,0,0,0,0,0,0,0,0,0,0,0,0,
0,0,0,0,0,0,0,0,0,0,0,0,0,0,0,0,0,0,
0,0,0,0,0,0,0,0,0,0,0,0,0,0,0,0,0,0
</data>
 </layer>
 <objectgroup id="8" name="Front"/>
 <layer id="9" name="AlwaysFront" width="18" height="11">
  <data encoding="csv">
0,0,0,0,0,0,0,0,0,0,0,0,0,0,0,0,0,0,
0,0,0,0,0,0,0,0,0,0,0,0,0,0,0,0,0,0,
0,0,0,0,0,0,0,0,0,0,0,0,0,0,0,0,0,0,
0,0,0,0,0,0,0,0,0,0,0,0,0,0,0,0,0,0,
0,0,0,0,0,0,0,0,0,0,0,0,0,0,0,0,0,0,
0,0,0,0,0,0,0,0,0,0,0,0,0,0,0,0,0,0,
0,0,0,0,0,0,0,0,0,0,0,0,0,0,0,0,0,0,
0,0,0,0,0,0,0,0,0,0,0,0,0,0,0,0,0,0,
0,0,0,0,0,0,0,0,0,0,0,0,0,0,0,0,0,0,
0,0,0,0,0,0,0,0,0,0,0,0,0,0,0,0,0,0,
0,0,0,0,0,0,0,0,0,0,0,0,0,0,0,0,0,0
</data>
 </layer>
 <objectgroup id="10" name="AlwaysFront"/>
</map>
