<?xml version="1.0" encoding="UTF-8"?>
<map version="1.10" tiledversion="1.12.2" orientation="orthogonal" renderorder="left-down" width="15" height="25" tilewidth="16" tileheight="16" infinite="0" nextlayerid="11" nextobjectid="1">
 <tileset firstgid="1" source="spring_outdoorsTileSheet.tsx"/>
 <tileset firstgid="1976" source="mine_frost.tsx"/>
 <tileset firstgid="2264" source="winter_beach.tsx"/>
 <tileset firstgid="2791" source="winter_outdoorsTileSheet.tsx"/>
 <layer id="1" name="Back" width="15" height="25">
  <data encoding="csv">
3212,3212,3212,3212,3212,3212,3212,3212,3212,3212,3212,3212,3212,3212,3212,
3212,3212,3212,3212,3212,3212,3212,3212,3212,3212,3212,3212,3212,3212,3212,
3212,3212,3212,3212,3212,3212,3212,3212,3212,3212,3212,3212,3212,3212,3212,
3212,3212,3212,3212,3212,3212,3212,3212,3212,3212,3212,3212,3212,3212,3212,
3212,3212,3212,3212,3212,3212,3212,3212,3212,3212,3212,3212,3212,3212,3212,
3212,3212,3212,3212,3212,3212,3212,3212,3212,3212,3212,3212,3212,3212,3212,
3212,3212,3212,3212,3212,3212,3212,3212,3212,3212,3212,3212,3212,3212,3212,
3212,3212,3212,3212,3212,3212,3212,3212,3212,3212,3212,3212,3212,3212,3212,
3212,3212,3212,3212,3212,3212,3212,3212,3212,3212,3212,3212,3212,3212,3212,
3212,3212,3212,3212,3212,3212,3212,3212,3212,3212,3212,3212,3212,3212,3212,
3212,3212,3212,3212,3212,3212,3212,3212,3212,3212,3212,3212,3212,3212,3212,
2131,2131,2043,2129,2145,2116,2129,2113,2130,2113,2115,2114,2131,2129,2116,
2115,2115,2059,2113,2148,2130,2131,2116,2131,2114,2129,2145,2130,2115,2113,
2148,2148,2075,2129,2131,2130,2145,2114,2129,2114,2113,2148,2113,2115,2148,
2143,2143,2091,1073743999,1073743999,2143,1073743999,1073743999,2143,2144,2115,2145,2113,2145,2113,
2114,2159,2159,2159,2159,2141,2141,1073744110,1073744111,1073744111,2129,2131,2148,2145,2115,
2145,2141,2141,2157,2141,2141,2308,2157,2141,2159,2147485776,2116,2114,2145,2115,
2148,2175,2113,2175,2175,2145,2175,2323,2286,2306,2157,2127,2115,2115,2113,
2131,2130,2114,2114,2145,2129,2145,2129,2114,2305,2306,2141,2147485776,2114,2145,
2131,2113,2114,2148,2131,2131,2145,2130,2322,2158,2323,2159,2141,2127,2144,
3212,3212,3212,3212,2145,2130,2116,2116,2130,2114,1073743952,2305,2306,2159,2160,
2148,2116,2148,2145,2116,2115,2131,2113,2116,2145,2130,2125,2323,2141,2160,
2115,2148,2130,2114,2116,2116,2131,2129,2115,2129,2131,2129,2216,2217,2218,
2114,2114,2116,2115,2116,2130,2129,2113,2130,2129,2114,2145,2232,2233,2234,
2148,2130,2130,2130,2114,2115,2129,2113,2113,2116,2145,2129,2248,2249,2250
</data>
 </layer>
 <objectgroup id="2" name="Back"/>
 <layer id="3" name="Buildings" width="15" height="25">
  <data encoding="csv">
0,0,0,0,0,0,0,0,0,0,0,0,0,0,0,
0,0,0,0,0,0,0,0,0,0,0,0,0,0,0,
0,0,0,0,0,0,0,0,0,0,0,0,0,0,0,
0,0,0,0,0,0,0,0,0,0,0,0,0,0,0,
0,0,0,0,0,0,0,0,0,0,0,0,0,0,0,
0,0,0,0,0,0,0,0,0,0,0,0,0,0,0,
0,0,0,0,0,0,0,0,0,0,0,0,0,0,0,
0,0,0,0,0,0,0,0,0,0,0,0,0,0,0,
0,0,0,0,0,0,0,0,0,0,0,0,0,0,0,
0,0,0,0,0,0,0,0,0,0,0,0,0,0,0,
0,0,0,0,0,0,0,0,0,0,0,0,0,0,0,
3258,3258,0,3259,3258,3258,3259,3258,3259,3258,3259,3258,3259,3258,3256,
3283,3283,0,3284,3283,3283,3284,3283,3284,3283,3284,3283,3284,3283,3281,
3308,3308,0,3309,3308,3308,3309,3308,3309,3308,3309,3308,3309,3308,3306,
3333,3333,0,3334,3333,3333,3334,3333,3334,3333,3334,3333,3334,3333,3331,
0,0,0,0,0,0,0,0,0,0,0,0,0,0,0,
0,0,0,0,0,0,0,0,0,0,0,0,0,0,0,
0,0,0,0,0,0,0,0,0,0,0,0,0,0,0,
0,0,0,0,0,1700,0,0,0,0,0,0,0,0,0,
0,0,0,0,0,0,0,0,0,0,0,0,0,3226,0,
0,0,0,0,0,0,0,0,0,1173,0,0,0,0,0,
3284,3284,3284,3284,3287,0,0,0,2147487520,3988,0,0,0,0,0,
3283,3284,3283,3284,3284,3284,3258,3259,3258,3259,0,0,0,0,0,
3308,3309,3308,3309,3283,3284,3283,3284,3283,3284,0,0,0,0,0,
3308,3308,3308,3308,3308,3309,3308,3309,3308,3309,0,0,0,0,0
</data>
 </layer>
 <objectgroup id="4" name="Buildings"/>
 <layer id="5" name="Paths" width="15" height="25">
  <data encoding="csv">
0,0,0,0,0,0,0,0,0,0,0,0,0,0,0,
0,0,0,0,0,0,0,0,0,0,0,0,0,0,0,
0,0,0,0,0,0,0,0,0,0,0,0,0,0,0,
0,0,0,0,0,0,0,0,0,0,0,0,0,0,0,
0,0,0,0,0,0,0,0,0,0,0,0,0,0,0,
0,0,0,0,0,0,0,0,0,0,0,0,0,0,0,
0,0,0,0,0,0,0,0,0,0,0,0,0,0,0,
0,0,0,0,0,0,0,0,0,0,0,0,0,0,0,
0,0,0,0,0,0,0,0,0,0,0,0,0,0,0,
0,0,0,0,0,0,0,0,0,0,0,0,0,0,0,
0,0,0,0,0,0,0,0,0,0,0,0,0,0,0,
0,0,0,0,0,0,0,0,0,0,0,0,0,0,0,
0,0,0,0,0,0,0,0,0,0,0,0,0,0,0,
0,0,0,0,0,0,0,0,0,0,0,0,0,0,0,
0,0,0,0,0,0,0,0,0,0,0,0,0,0,0,
0,0,0,0,0,0,0,0,0,0,0,0,0,0,0,
0,0,0,0,0,0,0,0,0,0,0,0,0,0,0,
0,0,0,0,0,0,0,0,0,0,0,0,0,0,0,
0,0,0,0,0,0,0,0,0,0,0,0,0,0,0,
0,0,0,0,0,0,0,0,0,0,0,0,0,0,0,
0,0,0,0,0,0,0,0,0,0,0,0,0,0,0,
0,0,0,0,0,0,0,0,0,0,0,0,0,0,0,
0,0,0,0,0,0,0,0,0,0,0,0,0,0,0,
0,0,0,0,0,0,0,0,0,0,0,0,0,0,0,
0,0,0,0,0,0,0,0,0,0,0,0,0,0,0
</data>
 </layer>
 <objectgroup id="6" name="Paths"/>
 <layer id="7" name="Front" width="15" height="25">
  <data encoding="csv">
0,0,0,0,0,0,0,1843,0,0,0,0,0,0,0,
0,0,0,0,0,0,0,1868,0,0,0,0,0,0,0,
0,0,0,0,0,0,0,0,0,0,0,0,0,0,0,
0,0,0,0,0,0,0,0,0,0,0,0,0,0,0,
0,0,0,0,0,0,0,0,0,0,0,0,0,0,0,
0,0,0,0,0,0,0,0,0,0,0,0,0,0,0,
0,0,0,0,0,0,0,0,0,0,0,0,0,0,0,
0,0,0,0,0,0,0,0,0,0,0,0,0,0,0,
0,0,0,0,0,0,0,0,0,0,0,0,0,0,0,
0,0,0,0,0,0,0,0,0,0,0,0,0,0,0,
0,0,0,0,0,0,0,0,0,0,0,0,0,0,0,
0,0,0,0,0,0,0,0,0,0,0,0,0,0,0,
0,0,0,0,0,0,0,0,3221227172,0,0,0,0,0,0,
0,0,0,0,2147485348,0,0,0,0,0,0,0,0,1073743524,0,
0,0,0,0,0,0,0,0,0,0,0,0,0,0,0,
0,0,0,0,0,0,0,0,0,0,0,0,0,0,0,
0,0,0,0,0,0,0,0,0,0,0,0,0,0,0,
0,0,0,0,0,0,0,0,0,0,0,0,0,0,0,
0,0,0,0,0,0,0,0,0,0,0,0,0,3201,0,
0,0,0,0,0,0,0,0,0,0,0,0,0,0,0,
0,0,0,0,0,0,0,0,0,0,0,0,0,0,0,
0,0,0,0,0,0,0,0,0,0,0,0,0,0,0,
0,0,0,0,0,0,0,0,0,0,0,0,0,0,0,
0,0,0,0,0,0,0,0,0,934,0,0,0,0,0,
0,0,0,0,0,0,0,0,0,959,0,0,0,0,0
</data>
 </layer>
 <objectgroup id="8" name="Front"/>
 <layer id="9" name="AlwaysFront" width="15" height="25">
  <data encoding="csv">
0,0,0,0,0,0,0,0,0,0,0,0,0,0,0,
0,0,0,0,0,0,0,0,0,0,0,0,0,0,0,
0,0,0,0,0,0,0,0,0,0,0,0,0,0,0,
0,0,0,0,0,0,0,0,0,0,0,0,0,0,0,
0,0,0,0,0,0,0,0,0,0,0,0,0,0,0,
0,0,0,0,0,0,0,0,0,0,0,0,0,0,0,
0,0,0,0,0,0,0,0,0,0,0,0,0,0,0,
0,0,0,0,0,0,0,0,0,0,0,0,0,0,0,
0,0,0,0,0,0,0,0,0,0,0,0,0,0,0,
0,0,0,0,0,0,0,0,0,0,0,0,0,0,0,
0,0,0,0,0,0,0,0,0,0,0,0,0,0,0,
0,0,0,0,0,0,0,0,0,0,0,0,0,0,0,
0,0,0,0,0,0,0,0,0,0,0,0,0,0,0,
0,0,0,0,0,0,0,0,0,0,0,0,0,0,0,
0,0,0,0,0,0,0,0,0,0,0,0,0,0,0,
0,0,0,0,0,0,0,0,0,0,0,0,0,0,0,
0,0,0,0,0,0,0,0,0,0,0,0,0,0,0,
0,0,0,0,0,0,0,0,0,0,0,0,0,0,0,
0,0,0,0,0,0,0,0,0,0,0,0,0,0,0,
0,0,0,0,0,0,0,0,0,0,0,0,0,0,0,
0,0,0,0,0,0,0,0,0,1656,0,0,0,0,0,
0,0,0,0,0,0,0,0,0,862,0,0,0,0,0,
0,0,0,0,0,0,0,0,0,862,0,0,0,0,0,
0,0,0,0,0,0,0,0,0,862,0,0,0,0,0,
0,0,0,0,0,0,0,0,0,0,0,0,0,0,0
</data>
 </layer>
 <objectgroup id="10" name="AlwaysFront"/>
</map>
